X: 140
T:Redhaired Lass, The
M:C|
R:reel
H:Also played in A, #576
Z:id:hn-reel-102
K:G
DGGF G2BG|~G2BG AGEG|DGGF GABd|1 gedB cABG:|2 gedB cABc||
d2gd edgd|~d2gd cABc|d2gd edef|gedB cABc|
d2gd edgd|~d2gd BGAB|~c3A ~B3A|GABd e2dB||
"Variations:"
DGGF G2BG|AGBG AGEG|DG~G2 BGBd|gedB cBAG|
DGGF GABG|AGBG AE~E2|DG~G2 BGBd|gedB cABc||
d2gd edgd|~d2gd cABc|d2gf gdef|gded cABc|
d2gd edgd|~d2gd BGAB|~c3A ~B3A|GABd gedc||
BGGF G2BG|G2BG AGEG|
<end>
<start>
